docs/img/advantage/icon-rocket.svg

<svg width="120" height="120" viewBox="0 0 120 120" fill="none" xmlns="http://www.w3.org/2000/svg">
<path d="M111.947 8.96728C111.904 8.75999 111.803 8.5692 111.656 8.41727C111.508 8.26534 111.321 8.15857 111.115 8.10947C97.3874 4.75322 65.6695 16.7134 48.4851 33.8907C45.4201 36.9309 42.6259 40.2325 40.1343 43.7579C34.8351 43.2892 29.5359 43.6806 25.0195 45.6493C12.2765 51.2579 8.56634 65.8923 7.53274 72.1876C7.47412 72.5322 7.49623 72.8856 7.59735 73.2202C7.69846 73.5548 7.87582 73.8613 8.11548 74.1158C8.35513 74.3702 8.65055 74.5655 8.97849 74.6864C9.30643 74.8074 9.65795 74.8505 10.0054 74.8126L30.4687 72.5556C30.4833 74.0984 30.5764 75.6394 30.7476 77.1728C30.8506 78.2376 31.3232 79.2327 32.0835 79.9853L40.0077 87.8907C40.761 88.65 41.7558 89.1225 42.8202 89.2267C44.345 89.3972 45.8774 89.4903 47.4116 89.5056L45.1663 109.943C45.1289 110.29 45.1724 110.642 45.2935 110.969C45.4146 111.297 45.6099 111.592 45.8642 111.832C46.1185 112.071 46.4249 112.249 46.7592 112.35C47.0936 112.451 47.4468 112.474 47.7913 112.416C54.0749 111.408 68.7351 107.698 74.3109 94.9548C76.2796 90.4384 76.6827 85.1649 76.228 79.8915C79.762 77.3997 83.0722 74.6048 86.121 71.5384C103.359 54.3868 115.251 23.3767 111.947 8.96728ZM68.9226 51.0774C67.3485 49.5044 66.2763 47.4998 65.8416 45.3174C65.407 43.1349 65.6293 40.8725 66.4806 38.8164C67.3318 36.7603 68.7738 35.0029 70.624 33.7664C72.4742 32.5299 74.6496 31.8699 76.8749 31.8699C79.1003 31.8699 81.2756 32.5299 83.1259 33.7664C84.9761 35.0029 86.418 36.7603 87.2693 38.8164C88.1205 40.8725 88.3429 43.1349 87.9082 45.3174C87.4735 47.4998 86.4013 49.5044 84.8273 51.0774C83.7835 52.1227 82.5439 52.952 81.1793 53.5177C79.8148 54.0835 78.3521 54.3747 76.8749 54.3747C75.3977 54.3747 73.935 54.0835 72.5705 53.5177C71.206 52.952 69.9664 52.1227 68.9226 51.0774Z" fill="#FE9E45"/>
<path d="M39.4688 93.6164C38.1844 94.9031 36.1242 95.4047 33.6445 95.8336C28.0734 96.7828 23.1539 91.9688 24.1547 86.3367C24.5367 84.2016 25.6664 81.2086 26.3695 80.5055C26.5232 80.3548 26.6255 80.1595 26.6619 79.9473C26.6983 79.7351 26.6669 79.5169 26.5722 79.3236C26.4775 79.1303 26.3243 78.9717 26.1343 78.8705C25.9444 78.7692 25.7273 78.7303 25.5141 78.7594C22.3987 79.1406 19.5003 80.553 17.2805 82.7719C11.7703 88.2867 11.25 108.75 11.25 108.75C11.25 108.75 31.725 108.23 37.2352 102.715C39.4609 100.497 40.8752 97.594 41.25 94.4742C41.3367 93.4945 40.1438 92.9109 39.4688 93.6164Z" fill="#FE9E45"/>
</svg>

<svg width="120" height="120" fill="none" xmlns="http://www.w3.org/2000/svg"><path d="M111.947 8.967a1.118 1.118 0 00-.832-.858c-13.728-3.356-45.445 8.604-62.63 25.782a74.294 74.294 0 00-8.35 9.867c-5.3-.469-10.6-.077-15.115 1.891C12.277 51.258 8.566 65.892 7.533 72.188a2.26 2.26 0 002.472 2.625l20.464-2.257a45.11 45.11 0 00.279 4.617 4.577 4.577 0 001.335 2.812l7.925 7.906a4.592 4.592 0 002.812 1.336 45.39 45.39 0 004.592.279l-2.246 20.437a2.26 2.26 0 002.625 2.473c6.284-1.008 20.944-4.718 26.52-17.461 1.969-4.517 2.372-9.79 1.917-15.064a74.447 74.447 0 009.893-8.353c17.238-17.151 29.13-48.161 25.826-62.57zm-43.024 42.11a11.25 11.25 0 1115.904 0 11.236 11.236 0 01-15.904 0z" fill="#FE9E45"/><path d="M39.469 93.616c-1.285 1.287-3.345 1.789-5.825 2.218-5.57.949-10.49-3.865-9.49-9.497.383-2.135 1.512-5.128 2.215-5.832a1.024 1.024 0 00-.855-1.746 14.062 14.062 0 00-8.233 4.013c-5.51 5.515-6.031 25.978-6.031 25.978s20.475-.52 25.985-6.035a13.99 13.99 0 004.015-8.24c.087-.98-1.106-1.564-1.781-.859z" fill="#FE9E45"/></svg>
